!!!COM:	van Weerbeke, Gaspar
!!!CDT:	~1445//-~1517//
!!!OPR:	Quam pulchra es Cycle
!!!OTL:	O maria clausus hortus
!!!AGN:	Motet
!!!SMS:	Librone I
!!!SCT:	Gas2017f
!!!SCA:	Gas2017f
!!!voices-OPR: 4
!!!voices:	4
**kern	**text	**kern	**text	**kern	**kern	**text
*staff4	*staff4	*staff3	*staff3	*staff2	*staff1	*staff1
*Ivox	*	*Ivox	*	*Ivox	*Ivox	*
*I"Bassus	*	*I"Tenor	*	*I"Altus	*I"Superius	*
*I'B	*	*I'T	*	*I'A	*I'S	*
*clefF4	*	*clefGv2	*	*clefGv2	*clefG2	*
*k[b-]	*	*k[b-]	*	*k[b-]	*k[b-]	*
*M2/1	*	*M2/1	*	*M2/1	*M2/1	*
*met(C)	*	*met(C)	*	*met(C)	*met(C)	*
=1-	=1-	=1-	=1-	=1-	=1-	=1-
0r	.	1.d	O	0r	1.a	O
.	.	2d\	Ma-	.	2a/	Ma-
=2	=2	=2	=2	=2	=2	=2
0r	.	1.d	-ri-	0r	1.b-	-ri
.	.	2c\	-a,	.	2a/	a,
=3	=3	=3	=3	=3	=3	=3
0r	.	2c\	clau-	0r	2a/	clau-
.	.	2B-\	-sus	.	2g/	-sus
.	.	1A	hor-	.	2g/	hor-
.	.	.	.	.	2f#i/	.
=4	=4	=4	=4	=4	=4	=4
0r	.	0G	-tus,	0r	0g	-tus,
=5	=5	=5	=5	=5	=5	=5
1.D	Nau-	0r	.	1.a	0r	.
2E\	-fra-	.	.	2g\	.	.
=6	=6	=6	=6	=6	=6	=6
1D	-gan-	0r	.	1f	0r	.
2E\	-tis	.	.	2e\	.	.
2G\	mun-	.	.	2e\	.	.
=7	=7	=7	=7	=7	=7	=7
2F\	.	0r	.	2d\	0r	.
2G\	-di	.	.	1g	.	.
1A	por-	.	.	.	.	.
.	.	.	.	2f#i\	.	.
=8	=8	=8	=8	=8	=8	=8
0G	-tus,	0r	.	1g	0r	.
.	.	.	.	2.d\	.	.
.	.	.	.	4e\	.	.
=9	=9	=9	=9	=9	=9	=9
0F	.	0c	Pla-	0f	0a	Pla-
=10	=10	=10	=10	=10	=10	=10
1G	.	1B-	-ca	1d	1g	-ca
1D	.	1A	no-	1d	1f	no-
=11	=11	=11	=11	=11	=11	=11
2E\	.	1G	-bis,	2B-\	1g	-bis,
1G	.	.	.	2G/	.	.
.	.	1d	qui	1g	1b-	qui
2G\	.	.	.	.	.	.
=12	=12	=12	=12	=12	=12	=12
2A\	.	1c	te	2e\	2a/	te
2F\	.	.	.	2f\	1a	fe-
1G	.	1B-	fe-	1d	.	.
.	.	.	.	.	2g/	.
=13	=13	=13	=13	=13	=13	=13
0D	.	0A	-cit,	0d	0a	-cit,
=14	=14	=14	=14	=14	=14	=14
1D	.	1f	Ma-	1A	1dd	Ma-
2D\	.	2f\	-trem	2A/	2dd\	-trem
2D\	.	2f\	si-	2A/	2dd\	si-
=15	=15	=15	=15	=15	=15	=15
1.D	.	1.f	-bi	1.A	1.dd	-bi
2A\	.	2e\	quam	2c\	2cc\	quam
=16	=16	=16	=16	=16	=16	=16
2D\	.	2d\	e-	1d	2b-\	e-
2G\	.	4c\	.	.	4a/	.
.	.	4B-\	.	.	4g/	.
1D	.	1A	-le-	1d	2.f#i/	-le-
.	.	.	.	.	4e/	.
=17	=17	=17	=17	=17	=17	=17
1r	.	1G	-git.	1G	1g	.
2r	.	1r	.	1r	2r	.
2G\	.	.	.	.	2g/	.
=18	=18	=18	=18	=18	=18	=18
2D\	.	0r	.	0r	2a/	-di,
2D\	.	.	.	.	2a/	vir-
2G\	.	.	.	.	2b-\	-go
2G\	.	.	.	.	2b-\	glo-
=19	=19	=19	=19	=19	=19	=19
2F#i\	.	1r	.	1r	2a/	-ri-
2F#i\	.	.	.	.	2a/	-fi-
1G	.	2r	.	2r	1g	-ca,
.	.	2G/	Post-	2g\	.	.
=20	=20	=20	=20	=20	=20	=20
0r	.	2A/	-fi-	2f\	0r	.
.	.	2A/	-li-	2e\	.	.
.	.	2B-\	-um	2d\	.	.
.	.	2B-\	spes	2g\	.	.
=21	=21	=21	=21	=21	=21	=21
0r	.	2A/	u-	2f#i\	0r	.
.	.	2A/	-ni-	2f#i\	.	.
.	.	1G	-ca,	[1g	.	.
=22	=22	=22	=22	=22	=22	=22
1.G	Cle-	1d	Cle-	2g\]	1.b-	Cle-
.	.	.	.	1g	.	.
.	.	2d\	-mens	.	.	.
2G\	-mens	2d\	et	2g\	2b-\	-mens
=23	=23	=23	=23	=23	=23	=23
1.G	et	1.d	im-	1.g	1.b-	et
2A\	im-	2c\	.	2f\	2a/	im-
=24	=24	=24	=24	=24	=24	=24
2G\	-pe-	2d\	-pe-	2g\	2b-\	-pe-
2A\	-ri-	2c\	-ri-	2c\	2a/	-ri-
1G	-o-	1B-	-o-	1d	2b-\	-o-
.	.	.	.	.	2g/	.
=25	=25	=25	=25	=25	=25	=25
0D	-sa,	0A	-sa,	0d	0f#	-sa,
=26	=26	=26	=26	=26	=26	=26
1D	Nos-	1f	Nos-	1A	0r	.
2D\	-tra	2f\	-tra	2B-\	.	.
2C/	.	2e\	.	2c\	.	.
=27	=27	=27	=27	=27	=27	=27
1.D	de-	1.d	de-	1.A	1ff	Nos-
.	.	.	.	.	2ff\	-tra
2F\	-le	2c\	-le	2A/	2ee\	.
=28	=28	=28	=28	=28	=28	=28
1.G	ma-	2B-\	ma-	2.B-\	1.dd	de-
.	.	2G/	.	.	.	.
.	.	.	.	4c\	.	.
.	.	2B-\	.	2d\	.	.
2C/	-cu-	2c\	-cu	2c\	2cc\	-le
=29	=29	=29	=29	=29	=29	=29
2E\	-lo-	2G/	lo-	2g\	2b-\	ma-
2G\	.	2B-\	.	2e\	4a/	-cu-
.	.	.	.	.	4g/	.
1D	-sa,	1A	.	1d	2.f#i/	-lo-
.	.	.	.	.	4e/	.
=30	=30	=30	=30	=30	=30	=30
1r	.	1G	-sa,	1B-	1g	.
2r	.	1r	.	1r	2r	.
2G\	Ac-	.	.	.	2g/	.
=31	=31	=31	=31	=31	=31	=31
2D\	-cep-	0r	.	0r	2a/	-cep-
2D\	-ta	.	.	.	2a/	-ta
2G\	nos-	.	.	.	2b-\	nos-
2G\	-tra	.	.	.	2b-\	-tra
=32	=32	=32	=32	=32	=32	=32
2F#i\	can-	1r	.	1r	2a/	can-
2F#i\	-ti-	.	.	.	2a/	-ti
1G	-ca	2r	.	2r	1g	ca.
.	.	2G/	Im-	2g\	.	.
=33	=33	=33	=33	=33	=33	=33
0r	.	2A/	-pet-	2f\	0r	.
.	.	2A/	-ra	2e\	.	.
.	.	2B-\	pul-	2d\	.	.
.	.	2B-\	-chra	2g\	.	.
=34	=34	=34	=34	=34	=34	=34
0r	.	2A/	ce-	2f#i\	0r	.
.	.	2A/	-li-	2f#i\	.	.
.	.	1G	-ca.	1g	.	.
=35	=35	=35	=35	=35	=35	=35
1D	A-	1d	A-	1a	1f	A-
2D\	-ve,	2d\	-ve,	2a\	2f/	-ve,
2D\	de-	2d\	de-	2a\	2f/	de-
=36	=36	=36	=36	=36	=36	=36
1.D	-cus	1.d	-cus	1.a	1.f	-cus
2G\	vir-	2d\	vir-	2g\	2b-\	vir-
=37	=37	=37	=37	=37	=37	=37
2A\	-gi-	1c	-gi-	1f	1a	-gi-
2F\	.	.	.	.	.	.
1G	-ne-	1B-	-ne-	1e	1g	-ne-
=38	=38	=38	=38	=38	=38	=38
0F	-um,	0A	-um,	0f	0a	-um,
=39	=39	=39	=39	=39	=39	=39
1G	A-	1d	A-	1B-	1b-	A-
2G\	-ve,	2d\	-ve,	2B-\	2b-\	-ve,
2G\	iu-	2d\	iu-	2B-\	2b-\	iu-
=40	=40	=40	=40	=40	=40	=40
1.G	-bar	1.d	-bar	1.B-	1.b-	-bar
2A\	e-	2c\	e-	2c\	2a/	e-
=41	=41	=41	=41	=41	=41	=41
2B-\	-the-	1B-	-the-	1d	1g	-the-
2G\	-re-	.	.	.	.	.
1D	-um,	1A	-re-	1d	1f#i	-re-
=42	=42	=42	=42	=42	=42	=42
1r	.	1G	-um,	1B-	1g	-um,
2r	.	1r	.	1r	2r	.
2G\	No-	.	.	.	2g/	No-
=43	=43	=43	=43	=43	=43	=43
2D\	-bis	0r	.	0r	2a/	-bis
2D\	pre-	.	.	.	2a/	pre-
2G\	-sens	.	.	.	2b-\	-sens
2G\	so-	.	.	.	2b-\	so-
=44	=44	=44	=44	=44	=44	=44
2F#i\	-lem-	1r	.	1r	2a/	-lem
2F#i\	-ni-	.	.	.	2a/	ni
1G	-tas	2r	.	2r	1g	tas
.	.	2G/	As-	2g\	.	.
=45	=45	=45	=45	=45	=45	=45
0r	.	2A/	-sit	2f\	0r	.
.	.	2A/	per-	2e\	.	.
.	.	2B-\	-pes	2d\	.	.
.	.	2B-\	iu-	2g\	.	.
=46	=46	=46	=46	=46	=46	=46
0r	.	2A/	-cun-	2f#i\	0r	.
.	.	2A/	-di-	2f#i\	.	.
.	.	1G	-tas,	1g	.	.
=47	=47	=47	=47	=47	=47	=47
1G	Tu-	1B-	Tu-	1d	1g	Tu-
2G\	-a	2B-\	-a	2d\	2g/	-a
2G\	nam-	2B-\	nam-	2d\	2g/	nam-
=48	=48	=48	=48	=48	=48	=48
1G	-que	1B-	-que	1g	1d	-que
1G	ve-	1B-	ve-	1e-	1g	ve-
=49	=49	=49	=49	=49	=49	=49
2F\	-ne-	2A/	-ne-	2d\	2a/	-ne-
2D\	-ra-	1A	-ra-	1d	2f/	.
1E	-ti-	.	.	.	2g/	-ra-
.	.	2G/	-ti-	2c#i\	2g/	-ti-
=50	=50	=50	=50	=50	=50	=50
0D	-o	0A	-o	0d	1f	-o
.	.	.	.	.	1r	.
=51	=51	=51	=51	=51	=51	=51
1D	Sum-	1A	Sum-	1f	1a	Sum-
2D\	-ma	2A/	-ma	2f\	2a/	-ma
[2D\	est	[2A/	est	[2f\	[2a/	est
=52	=52	=52	=52	=52	=52	=52
2D\]	.	2A/]	.	2f\]	2a/]	.
2F\	gra-	2A/	gra-	2f\	2a/	gra-
2A\	-tu-	2c\	-tu-	2f\	2a/	-tu-
[2G\	-la-	2d\	-la	[2g\	[2b-\	-la-
=53	=53	=53	=53	=53	=53	=53
2G\]	.	2B-\	.	2g\]	4b-\]	.
.	.	.	.	.	4a/	.
2C/	-ti-	2c\	.	2e\	1g	.
1D	-o,	1A	ti-	1d	.	.
.	.	.	.	.	2f#i/	-ti-
=54	=54	=54	=54	=54	=54	=54
2r	.	1G	-o,	4B-\	2g/	.
.	.	.	.	4c\	.	.
1d	gra-	.	.	4d\	2b-\	.
.	.	.	.	4e\	.	.
.	.	2F/	gra-	2f\	2a/	.
2B-\	-tu-	2G/	-tu-	2d\	[2b-\	.
=55	=55	=55	=55	=55	=55	=55
2G\	-la-	2B-\	-la-	1e-	4b-\]	.
.	.	.	.	.	4a/	.
2C/	.	2c\	.	.	2g/	.
1D	-ti-	1A	-ti-	1d	2.f#i/	.
.	.	.	.	.	4e/	.
=56	=56	=56	=56	=56	=56	=56
0Gl	-o.	0Gl	-o.	0dl	0gl	.
==	==	==	==	==	==	==
*-	*-	*-	*-	*-	*-	*-
!!!RDF**kern: l=long note in original notation
!!!RDF**kern: i=editorial accidental
!!!RDF**kern: V=start of tuplet marker
!!!RDF**kern: Z=end of tuplet marker
!!!ENC:	Clare Bokulich
!!!END:	2016/03/29/
!!!EED:	Jesse Rodin
!!!EEV:	2016/03/30/
!!!ONB:	Translated from MusicXML and edited on 2016/03/30/ by Craig Sapp
!!muse2ps: C^@{COM}\nSource: @{SMS}^i2I150v85,85,85,150Q16c80
!!muse2ps: T^@{OPR}^u^6. @{OTL}^
